X: 125
T: Indian
N: Copyright, 1899, by A. Flanagan, Publisher.
C: words: Lydia Avery Coonley.
N: This is version 1, for ABC software that doesn't understand voice overlays.
B: "The Everyday Song Book", 1927
F: http://www.library.pitt.edu/happybirthday/pdf/The_Everyday_Song_Book.pdf
Z: 2017 John Chambers <jc:trillian.mit.edu>
M: 4/8
L: 1/8
K: Bb
% - - - - - - - - - - - - - - - - - - - - - - - - - - - - -
V: 1
V: 2 brace=2
V: 3 clef=bass middle=d
% - - - - - - - - - - - - - - - - - - - - - - - - - - - - -
[V:1] [| B> A G A | G F D2 | B> A G A | G F D2 |
w: 1.~In-dian in your blan-ket bound, In-dian, in your bead chains wound,
w: 2.~When to fish and hunt you go    In the moun-tains white with snow,
w: 3.~Cun-ning lit-tle red pa-poose,  Tight-ly strapped in cra-dle noose,
[V:2] [| [BD2B,2]>A [GD2B,2]A | [GD2B,2]F [D2B,2] | [BD2B,2]>A [GD2B,2]A | [GD2B,2]F [D2B,2] |
[V:3] [| [f2B2] [f2B2] | [f2B2] [f2B2] | [d2G2]  [d2G2] | [d2G2]  [d2G2] |
% - - - - - - - - - - - - - - - - - - - - - - - - - - - - -
[V:1] F> F {G}G {G}G | A A B2 | F> F G G | A A B2 |
w: O-ma-ha, or Sioux, or Crow,        With your ar-row and your bow,\-\-
w: When you pitch your point-ed tent  Where the pan-ther late-ly went,\-\-
w: With your moc-ca\-sin on your feet, Blan-ket for your robe com-plete;
[V:2] [FB,2]>F [GB,2]G | [AE2]A [B2D2] | [FB,2]>F [GB,2]G | [AE2]A [B2D2] |
[V:3] d2 e2 | f2 g2 | d2 ^c2 | =cF B2 |
% - - - - - - - - - - - - - - - - - - - - - - - - - - - - -
[V:1] d> c B c | B A G D/ E/ | F> G F c | B2 z2 |]
w: Tell me, do you like to roam    With the for-est for your home?
w: Can it be you nev-er fear       Dan-gerous foes are hid-ing near
w: This fair land was all your own Ere Co-lum-bus made it known.
[V:2] [dBD2]>[cA] [BGD2][cA] | [BG][AD] [GB,] D/E/ | [FD2]>G [FE2]c | [B2D2] z2 |]
[V:3] [d2G2] [d2G2] | [d2G2] [d-G][d_G] | [d2F2] [f2F2] | [f2B2] B,2 |]
%% - - - - - - - - - - - - - - - - - - - - - - - - - - - - -
